!!!!SEGMENT: Ric2001-Sufficiebat.krn
!!!id: Ric2001
!!!AGN: Motet
!!!SCT: Elzinga (1999)
!!!voices: 4
!!!COM: Jean Richafort
!!!OTL: Sufficiebat
**kern	**kern	**kern	**kern
*part4	*part3	*part2	*part1
*staff4	*staff3	*staff2	*staff1
*I"Bassus	*I"Tenor	*I"Altus	*I"Superius
*I'B	*I'T	*I'A	*I'S
*clefF4	*clefF4	*clefGv2	*clefGv2
*k[b-]	*k[b-]	*k[b-]	*k[b-]
*F:	*F:	*F:	*F:
*M2/1	*M2/1	*M2/1	*M2/1
*met(C|)	*met(C|)	*met(C|)	*met(C)
!!section: Prima pars: Sufficiebat
!!!OMD: Prima pars: Sufficiebat
=1	=1	=1	=1
1GG	1G	0r	[0g
2.GG	2D	.	.
.	[2G	.	.
4AA	.	.	.
=2	=2	=2	=2
2BB-y	2G]	0r	1g]
1C	4F	.	.
.	4E	.	.
.	1D	.	1f
2BBni	.	.	.
=3	=3	=3	=3
[0C	1C	1c	0e
.	1c	2G	.
.	.	[2c	.
=4	=4	=4	=4
0C]	2G	4c]	0e
.	.	4B-y	.
.	2.c	2A	.
.	.	2.G	.
.	4B-y	.	.
.	8cL	.	.
.	8B-y	.	.
.	8A	4A	.
.	8GJ	.	.
=5	=5	=5	=5
1D	2.F	2B-y	[0d
.	.	2A	.
.	4G	.	.
2.D	2A	2.F	.
.	[2D	.	.
4E	.	4G	.
=6	=6	=6	=6
2F	2D]	0A	1d]
1G	4C	.	.
.	4BB-y	.	.
.	1AA	.	1c
2F#i	.	.	.
=7	=7	=7	=7
1G	1GG	2D	1B-y
.	.	1G	.
1r	2r	.	1A
.	2D	2F	.
=8	=8	=8	=8
1C	2E	2G	0G
.	1F	2c	.
1C	.	2.c	.
.	2E	.	.
.	.	4B-y	.
=9	=9	=9	=9
1.D	2.F	2A	0d
.	.	2G	.
.	4G	.	.
.	4A	2F	.
.	4G	.	.
2BB-y	2B-y	4E	.
.	.	4D	.
=10	=10	=10	=10
1C	2A	1E	1c
.	1G	.	.
1D	.	2r	2B-y
.	2F#i	2D	2A
=11	=11	=11	=11
1GG	1G	1D	0B-y
1r	2r	[1E	.
.	2G	.	.
=12	=12	=12	=12
1C	1G	2E]	0c
.	.	4D	.
.	.	4C	.
1C	1A	1E	.
=13	=13	=13	=13
1.D	2A	2.F	[0A
.	1F	.	.
.	.	4G	.
.	.	4A	.
.	.	4B-y	.
4C	4E	[2A	.
4BB-y	4D	.	.
=14	=14	=14	=14
1C	1E	2A]	0A]
.	.	1G	.
1D	1D	.	.
.	.	2F	.
=15	=15	=15	=15
[0GG	0r	1E	[0G
.	.	1D	.
=16	=16	=16	=16
0GG]	1BB-y	2r	0G_
.	.	2D	.
.	1BB-y	1D	.
=17	=17	=17	=17
1r	1.C	1.E	0G_
2r	.	.	.
[2G	4BB-y	4D	.
.	4AA	4C	.
=18	=18	=18	=18
2G]	1BB-y	1D	0G]
1F	.	.	.
.	1C	2C	.
2E	.	2c	.
=19	=19	=19	=19
2F	1D	2A	0r
2A	.	2F	.
2.G	1GG	2.B-y	.
4F	.	4A	.
=20	=20	=20	=20
2E	1C	2G	0G
2D	.	2F	.
1C	1r	1E-i	.
=21	=21	=21	=21
0r	2r	2.F	[0A
.	2F	.	.
.	.	4E	.
.	2F	2D	.
.	2E	2C	.
=22	=22	=22	=22
0r	2F	2D	1A]
.	2A	2F	.
.	2.G	4E	1B-y
.	.	4D	.
.	.	[2G	.
.	4F	.	.
=23	=23	=23	=23
2r	2E	4G]	[0c
.	.	4F	.
2F	2F	2.A	.
2F	1C	.	.
.	.	4G	.
2E	.	[2G	.
=24	=24	=24	=24
2F	1r	2G]	1c]
2A	.	2F	.
2.G	2r	2G	2B-y
.	2c	[2C	2A
4F	.	.	.
=25	=25	=25	=25
2E	2c	2C]	0G
2D	2B-y	2.F	.
1C	[1c	.	.
.	.	4E	.
.	.	4E	.
.	.	4D	.
=26	=26	=26	=26
2r	1c]	2F	[0c
2F	.	2A	.
2F	1C	2A	.
2E	.	2G	.
=27	=27	=27	=27
2F	2r	2A	1c]
2A	1c	2F	.
2.G	.	2r	1d
.	2B-y	2G	.
4F	.	.	.
=28	=28	=28	=28
2E	2.c	1G	0e
2D	.	.	.
.	4B-y	.	.
1C	2A	2.c	.
.	2G	.	.
.	.	4B-y	.
=29	=29	=29	=29
2D	1F	2A	0f
2D	.	2G	.
2D	2A	1F	.
2D	2A	.	.
=30	=30	=30	=30
1AA	2A	2c	[0e
.	2A	2c	.
2C	1E	2c	.
2C	.	2c	.
=31	=31	=31	=31
2C	2G	1G	1e]
2C	2G	.	.
1GG	2G	2r	1d
.	2G	2G	.
=32	=32	=32	=32
2r	1D	4B-y	[0d
.	.	4A	.
2GG	.	4B-y	.
.	.	4c	.
4BB-y	2r	2.d	.
4AA	.	.	.
4BB-y	2D	.	.
4C	.	8cL	.
.	.	8B-yJ	.
=33	=33	=33	=33
2.D	4F	1A	1d]
.	4E	.	.
.	4F	.	.
4E	4G	.	.
2F	2A	2r	2c
2D	2F	2d	2Bni
=34	=34	=34	=34
1E	1G	2c	0c
.	.	1B-y	.
1F	2r	.	.
.	2F	2A	.
=35	=35	=35	=35
1BB-y	4B-y	2B-y	[0d
.	4A	.	.
.	4B-y	2F	.
.	4c	.	.
2r	1d	4B-y	.
.	.	4A	.
2GG	.	4B-y	.
.	.	4c	.
=36	=36	=36	=36
4BB-y	2r	2.d	0d_
4AA	.	.	.
4BB-y	2D	.	.
4C	.	8cL	.
.	.	8B-yJ	.
2.D	4F	4A	.
.	4E	4G	.
.	4F	4F	.
4E	4G	4E	.
=37	=37	=37	=37
2F	2A	2D	0d_
2.G	1B-y	1d	.
4D	.	.	.
2F	[2A	2c	.
=38	=38	=38	=38
1G	4A]	2.B-y	0d]
.	4G	.	.
.	2G	.	.
.	.	8AL	.
.	.	8GJ	.
2.D	2F	2A	.
.	2A	2f	.
4AA	.	.	.
=39	=39	=39	=39
2C	4G	4e	0r
.	4F	4d	.
2D	4E	1d	.
.	4D	.	.
1AA	1E	.	.
.	.	2c#i	.
=40	=40	=40	=40
0D	2r	1d	0d
.	2D	.	.
.	2D	2r	.
.	[2F	2D	.
=41	=41	=41	=41
1r	4F]	2D	0f
.	4G	.	.
.	4A	2.F	.
.	4F	.	.
1D	2B-y	.	.
.	.	4G	.
.	2A	4A	.
.	.	4F	.
=42	=42	=42	=42
1D	2.d	2B-y	0f
.	.	2A	.
.	4c	.	.
1D	2B-y	2.d	.
.	2A	.	.
.	.	4c	.
=43	=43	=43	=43
[0E-X	2.G	2B-y	[0g
.	.	2A	.
.	4F	.	.
.	2E	1G	.
.	2D	.	.
=44	=44	=44	=44
0E-X]	0C	2.e-X	0g]
.	.	4d	.
.	.	2c	.
.	.	2B-y	.
=45	=45	=45	=45
0F	2r	2A	1c
.	1A	2.f	.
.	.	.	1d
.	.	4e	.
.	2A	[2d	.
=46	=46	=46	=46
1E	1G	4d]	1e
.	.	4c	.
.	.	1c	.
2D	1F	.	[1f
2D	.	2B-y	.
=47	=47	=47	=47
0C	0c	2A	1f]
.	.	4G	.
.	.	4F	.
.	.	2.G	1e
.	.	8FL	.
.	.	8EJ	.
=48	=48	=48	=48
[0BB-y	0F	1D	0f
.	.	1r	.
=49	=49	=49	=49
0BB-]	2.F	2.B-y	1.d
.	4F	4B-y	.
.	2F	2B-y	.
.	2G	2B-y	2e
=50	=50	=50	=50
0r	2A	2c	1f
.	2.B-y	2.d	.
.	.	.	1g
.	4A	4c	.
.	2G	[2e	.
=51	=51	=51	=51
0r	2A	4e]	2c
.	.	4d	.
.	2F	1d	2d
.	1E	.	2e
.	.	2c	4d
.	.	.	4e
=52	=52	=52	=52
1r	1D	1d	1f
[1C	1r	1G	[1e
=53	=53	=53	=53
2C]	1.C	1.G	2e]
2D	.	.	2d
2.E	.	.	2c
.	2D	2B-y	2B-y
4D	.	.	.
=54	=54	=54	=54
2C	2E	2A	0c
2BB-y	2.D	2.G	.
1AA	.	.	.
.	4C	4F#i	.
.	4C	4F#i	.
.	4BB-y	4E	.
=55	=55	=55	=55
[0GG	[0D	0G	[0B-y
=56	=56	=56	=56
0GG]	0D]	1r	0B-_
.	.	[1d	.
=57	=57	=57	=57
1r	1.d	2d]	0B-_
.	.	2c	.
[1G	.	2B-y	.
.	2c	2A	.
=58	=58	=58	=58
2G]	2B-y	1.G	0B-]
2F	2A	.	.
2E	4G	.	.
.	4F	.	.
2D	[2B-y	2F	.
=59	=59	=59	=59
1C	2B-]	1E	0r
.	2A	.	.
2BB-y	2B-y	1D	.
2GG	[2d	.	.
=60	=60	=60	=60
1G	2d]	1r	0B-y
.	2c	.	.
2G	2B-y	2.d	.
2F	2A	.	.
.	.	4d	.
=61	=61	=61	=61
2E	2G	2c	0c
2D	2F	1B-y	.
1C	1E	.	.
.	.	2A	.
=62	=62	=62	=62
2BB-y	2D	2B-y	0d
2GG	2G	2B-y	.
1G	2G	2B-y	.
.	2F	2B-y	.
=63	=63	=63	=63
2G	2E	2G	[0e-i
2F	2D	2G	.
2E	1C	[1c	.
2D	.	.	.
=64	=64	=64	=64
1C	1c	2c]	0e-]
.	.	2B-y	.
1C	2c	2A	.
.	2B-y	2G	.
=65	=65	=65	=65
0D	2A	2.F	[0d
.	2G	.	.
.	.	4G	.
.	2.F	2A	.
.	.	[2B-y	.
.	4E	.	.
=66	=66	=66	=66
0D	4F	2B-]	0d]
.	4D	.	.
.	1G	4A	.
.	.	4G	.
.	.	2A	.
.	2F#i	2D	.
=67	=67	=67	=67
1r	2G	2.B-y	0d
.	2G	.	.
.	.	4A	.
2.G	2G	2B-y	.
.	2F	2d	.
4G	.	.	.
=68	=68	=68	=68
2G	1E	2d	1e
2G	.	2c#i	.
2F	1D	[1d	[1f
2F	.	.	.
=69	=69	=69	=69
1.B-y	2.BB-y	1d]	2f]
.	.	.	2e
.	4AA	.	.
.	4BB-y	1r	2d
.	4GG	.	.
2A	[2C	.	2c
=70	=70	=70	=70
1.G	2C]	1D	1d
.	2BBni	.	.
.	2.C	2.E	[1c
4F	.	.	.
4E	4BB-y	4D	.
=71	=71	=71	=71
1F	1AA	1C	2c]
.	.	.	2c
1G	1GG	1D	2B-y
.	.	.	2A
=72	=72	=72	=72
0D	2r	1r	0A
.	2G	.	.
.	2G	2.d	.
.	2F#i	.	.
.	.	4d	.
=73	=73	=73	=73
1r	1.G	2d	[0Gl
.	.	2d	.
2.C	.	1e	.
.	2F	.	.
4C	.	.	.
=74	=74	=74	=74
2C	1E	1c	0G_
2C	.	.	.
2BB-y	1D	1d	.
2BB-y	.	.	.
=75	=75	=75	=75
1.E-i	1C	1r	0G_
.	[1G	1B-y	.
2D	.	.	.
=76	=76	=76	=76
1.C	2G]	1c	0G_
.	2C	.	.
.	[1G	[1e-i	.
4BB-y	.	.	.
4AA	.	.	.
=77	=77	=77	=77
1BB-y	2G]	2e-]	0G_
.	2F	2d	.
1C	1E	2c	.
.	.	4B-y	.
.	.	4A	.
=78	=78	=78	=78
00GGl	00Dl	00B-yl	00G]
==	==	==	==
*-	*-	*-	*-
!!!system-decoration: [*]
!!!RDF**kern: i = editorial accidental
!!!RDF**kern: l = terminal long
!!!ENC: Benjamin Ory
!!!END: 2021/1/10
!!!EED: Benjamin Ory
!!!EEV: 2021/05/02
!!!YEC: Copyright 2021 Benjamin Ory, All Rights Reserved
!!!ONB: Translated from MusicXML on 2021/05/02
